X: 1
T: Mountain Skies
C: Barbara McOwen (Oct 1992)
R: waltz
Z: 2006 John Chambers <jc:trillian.mit.edu>
S: handwritten MS probably from Barbara
M: 3/4
L: 1/8
K: D
g (3fed \
| "D"Ad- d2 dA | "C"G=c- c2 cG | "D"A2 d2 e2 | f3 efg \
| "D7"f/g/a- a2 A2 | "G"g3 fed | "C"=cd e3 f | "A7"gf eg (3fed |
| "D"Ad- d2 dA | "C"G=c- c2 cG | "D"A2 d2 f2 | A3 G F2 \
| "C"E=c- c2 c2 | "A7"Ad- d2 d2 | "D"D6- | D3 :|
|: aag \
| "D"fa- a2 f2 | "C"eg- g2 e2 | "D"fg fe d2 | "D"Ad de fg \
| "D7"f2 A4 | "G7"g2B4 | "C"=cd e3 f | "G7"gf ea ag |
| "D"fA- A2 F2 | "C"GE- E2 =C2 | "D"DE FE FG | "D"A3 G F2 \
| "C"E=c- c2 c2 | "A7"Ad- d2 d2 | "D"D6- | D3 :|
